X:1
T:Ave Regina - Webbe
T:#
%%score { 1 | 2 } { ( 3 4 ) | 5 }
L:1/8
Q:1/4=90
M:4/4
K:D
V:1 treble nm="Treble I" snm="Tr"
V:2 treble 
V:3 treble nm="Organ"
V:4 treble 
V:5 bass 
V:1
"^Ave Regina""^Samuel Webbe\n(1740-1816)""^Soli" z2 D4 E2 | z2 E2 E2 F2 | z2"^Tutti" d4 A>G | %3
w: A- ve|Re- gi- na,|A- ve Re-|
 F2 E>D A2 !fermata!A2 | z2 A4 A2 | B>c c2 d2 e2 | f4 d4 |[M:4/4]"^Soli" z2 A>A d2 A2 | %8
w: gi- na coe- lo- rum,|A- ve|Do- mi- na An- ge-|lo- rum:|Sal- ve ra- dix,|
 z2"^Tutti" A>A d2 A2 | z2 AA (Af) (fe) | (ed) (dc) c2 !fermata!B2 |"^Soli" e2 e2 c2 A2 | %12
w: sal- ve por- ta,|Ex qua mun\- * do *|lux * est * or- ta:|Gau- de Vir- go|
 d3 d B2 G2 |"^Tutti" A2 A2 F2 D2 | E3 E C2 !fermata!A,2 | z2"^Soli" (A4 G2) | F2 (f4 e2) | d4 z4 | %18
w: glo- ri- o- sa,|Su- per o- mnes|spe- ci- o- sa,|Va\- *|le, va\- *|le,|
 B2 cd A2 BF | (G3 A/G/) F2"^Tutti" FF | B2 A2 c2 dD | (F2 E2) Dddd | %22
w: va- le O val- de de-|co\- * * ra et pro|no- bis Chri- stum ex-|o\- * ra, pro no- bis|
 (f2 e2)[Q:1/4=88] d2[Q:1/4=85] z[Q:1/4=83] F |[Q:1/4=80] (A2[Q:1/4=77] G2)[Q:1/4=76] F4 |] %24
w: Chri\- * stum ex-|o\- * ra.|
V:2
 z2 D4 C2 | z2 C2 C2 D2 | z2"^Tutti" d4 A>G | F2 E>D A2 !fermata!A2 | z2 F4 F2 | G>E E2 (Fd) (dc) | %6
w: A- ve|Re- gi- na,|A- ve Re-|gi- na coe- lo- rum,|A- ve|Do- mi- na An\- * ge\- *|
 d4 d4 |[M:4/4] z2 A>G F2 F2 | z2"^Tutti" A>G F2 F2 | z2 AA (Ad) (dc) | (cB) (BA) A2 !fermata!^G2 | %11
w: lo- rum:|Sal- ve ra- dix,|sal- ve por- ta,|Ex qua mun\- * do *|lux * est * or- ta:|
 z4 A2 A2 | FDDF G2 G2 |"^Tutti" A2 A2 F2 D2 | E3 E C2 !fermata!A,2 | z8 | z2 (A4 G2) | F4 z4 | %18
w: Gau- de|Vir- go glo- ri- o- sa,|Su- per o- mnes|spe- ci- o- sa,||Va\- *|le,|
 G2 EE F2 DD | (E2 C2) D2"^Tutti" DD | D2 D2 G2 FD | (D2 C2) DFFF | (A2 G2) F2 z D | (F2 E2) D4 |] %24
w: va- le O val- de de-|co\- * ra et pro|no- bis Chri- stum ex-|o\- * ra, pro no- bis|Chri\- * stum ex-|o\- * ra.|
V:3
!p! [F,A,D]2 D4 [CE]2 | [A,CE]2 [CE]2 [CE]2 [DF]2 |!f! [FAd]2 [FAd]4 A>G | F2 E>D A2 !fermata!A2 | %4
 [DFA]2 [FA]4 [FA]2 | B>c [EGc]2 d2 e2 | [Adf]4 [FAd]4 |[M:4/4] z2!p! A2 [Fd]2 A2 | %8
!f! [CEA]2 A2 [Fd]2 [DFA]2 | [CEA]2 [DA][GA] ([FA][df])([df][ce]) | %10
 ([ce][Bd])([Bd][Ac]) [Ac]2 !fermata![^GB]2 |!p! e2 e2 [Ac]2 A2 | d3 d B2 G2 |!f! A2 A2 F2 D2 | %14
 E3 E [E,C]2 !fermata!A,2 |!p! [FAe]2 [FA]4 [EG]2 | [DF]2 [Af]4 [Ge]2 | [Fd]4 z4 | %18
 [GB]2 cd [FA]2 BF | (G3 A/G/) F2!f! FF | [DGB]2 [DA]2 [Gc]2 [Fd]D | ([DF]2 [CE]2) D[Fd][Fd][Fd] | %22
 ([Af]2 [Ge]2) dddd | ([Adf]2 [Gce]2) [Fd]4 |] %24
V:4
 x8 | x8 | x8 | x4 [CE]4 | x8 | G2 x2 FA[Bd][Ac] | x8 |[M:4/4] x2 A>G x2 AF | x2 A>G x4 | x8 | x8 | %11
 z ^GBG z CEC | F2 DF G2 DB, | z CEC z F,A,F, | z B,^G,B, x4 | x8 | x8 | x8 | x2 E2 x2 D2 | %19
 E2 C2 D2 [A,D]2 | x8 | x8 | x4 F2 z F | x2[I:staff +1] A,2- A,4 |] %24
V:5
 [D,,D,]4 F,D, A,2 | A,,4 C,A,, D,2 | D,4 F,D, A,>G, | F,2 E,>D, !fermata!A,,4 | D,4 F,D,F,D, | %5
 G,E,A,A,, D,F,G,A, | D,8 |[M:4/4][K:treble] AGFE DDFD | A,G,F,E, D,D,F,D, | %9
 A,,G,,F,,E,, D,,2 A,,2 | B,,2 D,2 !fermata!E,4 | z E,^G,E, z A,CA, | z D,F,D, z G,B,G, | %13
 z A,,C,A,, z D,F,D, | z ^G,,B,,G,, !fermata!A,,4 | D4 A,4 | [D,D]4 [A,,A,]4 | [D,,D,]4 z4 | z8 | %19
 z4 z2 [D,,D,]2 | [G,,G,]2 [F,,F,]2 [E,,E,]2 [D,,D,]2 | [A,,A,]2 A,,2 D,4- | %22
 D,/E,/F,/G,/ A,A,, D,4- | D,/E,/F,/G,/ A,A,, D,4 |] %24

